svg/fluentui-system-icons/ic_fluent_pen_dismiss_20_filled.svg

<svg width="20" height="20" viewBox="0 0 20 20" fill="none" xmlns="http://www.w3.org/2000/svg">
<path d="M12.9203 2.87317C14.1027 1.69077 16.0271 1.71505 17.1794 2.92689C18.2913 4.09631 18.2681 5.93899 17.1271 7.08003L15.0001 9.20705C14.5232 9.07217 14.02 9 13.5 9C10.4624 9 8 11.4624 8 14.5C8 15.0201 8.07218 15.5233 8.20707 16.0001L7.76907 16.4381C7.43048 16.7767 7.00237 17.0118 6.53494 17.1157L2.60855 17.9889C2.44166 18.026 2.26739 17.9753 2.14649 17.8544C2.02559 17.7335 1.97483 17.5592 2.01191 17.3923L2.88953 13.4424C2.99008 12.9899 3.21763 12.5754 3.54545 12.2475L12.9203 2.87317ZM18 14.5C18 16.9853 15.9853 19 13.5 19C11.0147 19 9 16.9853 9 14.5C9 12.0147 11.0147 10 13.5 10C15.9853 10 18 12.0147 18 14.5ZM15.3536 13.3536C15.5488 13.1583 15.5488 12.8417 15.3536 12.6464C15.1583 12.4512 14.8417 12.4512 14.6464 12.6464L13.5 13.7929L12.3536 12.6464C12.1583 12.4512 11.8417 12.4512 11.6464 12.6464C11.4512 12.8417 11.4512 13.1583 11.6464 13.3536L12.7929 14.5L11.6464 15.6464C11.4512 15.8417 11.4512 16.1583 11.6464 16.3536C11.8417 16.5488 12.1583 16.5488 12.3536 16.3536L13.5 15.2071L14.6464 16.3536C14.8417 16.5488 15.1583 16.5488 15.3536 16.3536C15.5488 16.1583 15.5488 15.8417 15.3536 15.6464L14.2071 14.5L15.3536 13.3536Z" fill="#212121"/>
</svg>

<svg xmlns="http://www.w3.org/2000/svg" width="20" height="20"><path d="M12.92 2.873a2.975 2.975 0 0 1 4.207 4.207L15 9.207A5.5 5.5 0 0 0 8.207 16l-.438.438a2.518 2.518 0 0 1-1.234.678l-3.926.873a.5.5 0 0 1-.597-.597l.878-3.95c.1-.452.328-.867.655-1.194l9.375-9.375ZM18 14.5a4.5 4.5 0 1 1-9 0 4.5 4.5 0 0 1 9 0Zm-2.646-1.146a.5.5 0 0 0-.708-.708L13.5 13.793l-1.146-1.147a.5.5 0 0 0-.708.708l1.147 1.146-1.147 1.146a.5.5 0 0 0 .708.708l1.146-1.147 1.146 1.147a.5.5 0 0 0 .708-.708L14.207 14.5l1.147-1.146Z"/></svg>
